src/icons/svg/clipboard.svg

<?xml version="1.0" encoding="UTF-8" standalone="no"?>
<svg width="128px" height="128px" viewBox="0 0 128 128" version="1.1" xmlns="http://www.w3.org/2000/svg" xmlns:xlink="http://www.w3.org/1999/xlink">
    <!-- Generator: Sketch 40 (33762) - http://www.bohemiancoding.com/sketch -->
    <title>clipboard</title>
    <desc>Created with Sketch.</desc>
    <defs></defs>
    <g id="Page-1" stroke="none" stroke-width="1" fill="none" fill-rule="evenodd">
        <g id="clipboard" fill="#000000">
            <path d="M54.8571429,118.857143 L118.857143,118.857143 L118.857143,73.1428571 L89.1428571,73.1428571 C87.2411429,73.1428571 85.6228572,72.4754285 84.288,71.1405714 C82.9531428,69.8057142 82.2857142,68.1874285 82.2857142,66.2857142 L82.2857142,36.5714285 L54.8571429,36.5714285 L54.8571429,118.857143 L54.8571429,118.857143 Z M73.1428571,16 L73.1428571,11.4285714 C73.1428571,10.8068571 72.9173333,10.2704762 72.4662858,9.8194285 C72.0152382,9.36838083 71.4788572,9.14285704 70.8571429,9.14285713 L20.5714286,9.14285713 C19.9497144,9.14285713 19.4133334,9.36838092 18.9622858,9.8194285 C18.5112381,10.2704761 18.2857143,10.806857 18.2857144,11.4285714 L18.2857144,16 C18.2857144,16.6217143 18.5112382,17.1580952 18.9622858,17.6091429 C19.4133333,18.0601905 19.9497143,18.2857143 20.5714286,18.2857142 L70.8571429,18.2857142 C71.4788571,18.2857142 72.0152381,18.0601905 72.4662858,17.6091429 C72.9173334,17.1580953 73.1428572,16.6217143 73.1428571,16 L73.1428571,16 Z M91.4285714,64 L112.786286,64 L91.4285714,42.6422857 L91.4285714,64 L91.4285714,64 Z M128,73.1428571 L128,121.142857 C128,123.044571 127.332571,124.662857 125.997714,125.997714 C124.662857,127.332571 123.044571,128 121.142857,128 L52.5714285,128 C50.6697143,128 49.0514285,127.332571 47.7165714,125.997714 C46.3817142,124.662857 45.7142856,123.044571 45.7142856,121.142857 L45.7142856,109.714286 L6.85714275,109.714286 C4.9554285,109.714286 3.33714279,109.046857 2.00228563,107.712 C0.667428458,106.377143 -1.24999991e-07,104.758857 -1.24999991e-07,102.857143 L-1.24999991e-07,6.85714288 C-1.24999991e-07,4.95542863 0.667428458,3.33714292 2.00228563,2.00228575 C3.33714279,0.667428583 4.9554285,8.73375446e-15 6.85714275,8.43769499e-15 L84.5714285,8.43769499e-15 C86.4731428,8.43769499e-15 88.0914285,0.667428583 89.4262856,2.00228575 C90.7611428,3.33714292 91.4285714,4.95542863 91.4285714,6.85714288 L91.4285714,30.2902858 C92.4281905,30.912 93.2845714,31.5794286 93.9977143,32.2925715 L123.145143,61.4400001 C124.48,62.7748573 125.622857,64.585143 126.573714,66.8708573 C127.524571,69.1565715 128,71.2533334 128,73.161143 L128,73.1428571 Z" id="Shape"></path>
        </g>
    </g>
</svg>

<svg width="128" height="128" xmlns="http://www.w3.org/2000/svg"><path d="M54.857 118.857h64V73.143H89.143c-1.902 0-3.52-.668-4.855-2.002-1.335-1.335-2.002-2.954-2.002-4.855V36.57H54.857v82.286zM73.143 16v-4.571a2.2 2.2 0 0 0-.677-1.61 2.198 2.198 0 0 0-1.609-.676H20.571c-.621 0-1.158.225-1.609.676a2.198 2.198 0 0 0-.676 1.61V16a2.2 2.2 0 0 0 .676 1.61c.451.45.988.676 1.61.676h50.285c.622 0 1.158-.226 1.61-.677.45-.45.676-.987.676-1.609zm18.286 48h21.357L91.43 42.642V64zM128 73.143v48c0 1.902-.667 3.52-2.002 4.855-1.335 1.335-2.953 2.002-4.855 2.002H52.57c-1.901 0-3.52-.667-4.854-2.002-1.335-1.335-2.003-2.953-2.003-4.855v-11.429H6.857c-1.902 0-3.52-.667-4.855-2.002C.667 106.377 0 104.759 0 102.857v-96c0-1.902.667-3.52 2.002-4.855C3.337.667 4.955 0 6.857 0h77.714c1.902 0 3.52.667 4.855 2.002 1.335 1.335 2.003 2.953 2.003 4.855V30.29c1 .622 1.856 1.29 2.569 2.003l29.147 29.147c1.335 1.335 2.478 3.145 3.429 5.43.95 2.287 1.426 4.383 1.426 6.291v-.018z" fill-rule="evenodd"/></svg>
